!!!COM: Scarlatti, Domenico
!!!CDT: 1685///-1757///
!!!OTL: Sonata in D Major, K.178, L.258
!!!SCT: K. 178
!!!SCT: L. 258
!!!OMD: Andante
**kern	**kern	**dynam
*staff2	*staff1	*staff1/2
*Icemba	*Icemba	*Icemba
*>[A,A,B,B]	*>[A,A,B,B]	*>[A,A,B,B]
*>norep[A,B]	*>norep[A,B]	*>norep[A,B]
*>A	*>A	*>A
*clefF4	*clefG2	*clefG2
*k[f#c#]	*k[f#c#]	*k[f#c#]
*D:	*D:	*D:
*M3/4	*M3/4	*M3/4
*MM92	*MM92	*MM92
=1-	=1-	=1-
2DD/	(8dd/L	p
.	8a/	.
.	8f#/	.
.	8d/J)	.
[4d\	(8ff#\L	mf
.	16ee\L	.
.	16dd\JJ)	.
=2	=2	=2
8d\L]	2.e/	.
(8d\	.	.
8c#\	.	.
8B\	.	.
8c#\	.	.
8d\J)	.	.
=3	=3	=3
2AA/	(8ee/L	p
.	8cc#/	.
.	8g/	.
.	8e/J)	.
[4e\	(8gg\L	mf
.	16ff#\L	.
.	16ee\JJ)	.
=4	=4	=4
8e\L]	2.f#/	.
(8e\	.	.
8d\	.	.
8c#\	.	.
8d\	.	.
8e\J)	.	.
=5	=5	=5
2D\	(8ff#\L	p
.	8dd\	.
.	8a\	.
.	8f#\J)	.
[4f#\	(8aa\L	mf
.	16gg\L	.
.	16ff#\JJ)	.
=6	=6	=6
8f#\L]	2.g/	.
(8f#\	.	.
8e\	.	.
8d#\	.	.
8e\	.	.
8f#\J)	.	.
=7	=7	=7
2E\	(8gg\L	p
.	8ee\	.
.	8b\	.
.	8g\J)	.
([4g\	(8bb\L	mf
.	16aa\L	.
.	16gg\JJ	.
=8	=8	=8
8g\L]	8aa\L	.
16f#\L	8cc#\J	.
16e\JJ	.	.
8f#\L	8dd\L	.
8d\J	16ee\L	.
.	16ff#\JJ	.
.	aaq/	.
8e\L	8gg\L	>
16d\L	16ff#\L	)
16c#\JJ	16ee\JJ	]
=9	=9	=9
(8d\L)	(4ff#\)	p
8A\	.	.
8F#\	4a/	.
8D\J)	.	.
(8f#\L	[4dd\	mf
16e\L	.	.
16d\JJ)	.	.
=10	=10	=10
*	*^	*
2.EE/	4r	8dd\L]	>
.	.	8ee\J	]
.	8cc#/L	2g\	p
.	8dd/	.	.
.	8ee/	.	.
.	8ff#/J	.	.
*	*v	*v	*
=11	=11	=11
(8e\L	(8gg\L)	.
8c#\	8ee\	.
8G\	8cc#\	.
8E\J)	8dd\J	.
(8g\L	[4ee\	mf
16f#\L	.	.
16e\JJ)	.	.
=12	=12	=12
*	*^	*
2.FF#/	4r	8ee\L]	>
.	.	8ff#\J	]
.	8dd/L	2a\	p
.	8ee/	.	.
.	8ff#/	.	.
.	8gg/J	.	.
*	*v	*v	*
=13	=13	=13
(8f#\L	(8aa\L)	.
8d\	8ff#\	.
8A\	8dd\	.
8F#\J)	8ee\J	.
8a\L	[4ff#\	mf
16g\L	.	.
16f#\JJ	.	.
=14	=14	=14
*	*^	*
2.GG/	4r	8ff#\L]	>
.	.	8gg\J	]
.	8ee/L	2b\	p
*	*v	*v	*
*	*^	*
.	8ff#/	.	.
.	8gg/	.	.
.	8aa/J	.	.
*	*v	*v	*
=15	=15	=15
(8g\L	8bb'\)	mf
8e\	(4gg\	.
8B\	.	.
8G\J)	8ff#\L	.
(8b\L	8ee\	.
16a\L	8dd\J)	.
16g\JJ)	.	.
=16	=16	=16
4.AA/	(8dd\L	.
.	8cc#\J)	.
.	(4.aa\	.
(8g\L	.	.
8f#\	.	.
8e\J	8gg\	.
=17	=17	=17
8d\L	8ff#\L	>
8e\	8ee\	)
8f#\	8dd\	)
8d\J	8cc#\J	)
8g\L	4b\	)
16f#\L	.	)
16e\JJ	.	)
=18	=18	=18
4f#\	8a\L	)
.	8dd\J	)
4e\	2g/	)
4A\	.	]
=19	=19	=19
8d\L	8f#/L	p
8D\J)	8dd/J	.
8A\L	4g/ 4cc#/)	.
8AA\J	.	.
(8d\L	8f#/L	.
8D\J)	8dd/J	.
=20	=20	=20
(8A\L	4g/ 4cc#/	.
8AA\J)	.	.
(8d\L	(8f#'/ 8dd'/L	.
8D\J)	8f#'/) 8dd'/J	.
(8e\L	4g#/ 4dd/	.
8E\J)	.	.
=21	=21	=21
*	*^	*
8A\L	(8cc#/L	4a\	.
8AA\J	8ee/J)	.	.
(8e\L	4r	4g#/ 4dd/	.
8E\J)	.	.	.
8A\L	(8cc#/L	4a\	.
8AA\J	8dd/J)	.	.
=22	=22	=22	=22
(8F#/L	4r	4a#\ 4ee\	.
8FF#/J)	.	.	.
(8B\L	(8dd/L	4b\	.
8BB\J)	8ff#/J)	.	.
(8F#/L	4r	4a#\ 4ee\	.
8FF#/J)	.	.	.
=23	=23	=23	=23
(8B\L	(8dd/L	4b\	<
8BB\J)	8ff#/J)	.	(
(8A\L	4r	4cc#\ 4gg\	(
8AA\J)	.	.	(
(8d\L	(8ff#/L	4dd'\	(
8D\J)	8aa/J)	.	(
=24	=24	=24	=24
(8A\L	4r	4cc#\ 4gg\	(
8AA\J)	.	.	(
(8d\L	(8ff#'/L	4dd\	(
8D\J)	8ff#'/J)	.	(
(8e\L	4r	4dd\ 4gg#\	(
8E\J)	.	.	(
=25	=25	=25	=25
(8A\L	(8aa'/L	4cc#\	(
8AA\J)	8aa'/J)	.	(
(8e\L	4r	4dd/ 4gg#/	(
8E\J)	.	.	(
4A\	4r	16cc#\ (16aa\LL	(
.	.	16gg#\	(
.	.	16ff#\	(
.	.	16ee\JJ	(
*	*v	*v	*
=26	=26	=26
2.r	16dd\LL	(
.	16cc#\	(
.	16b\	(
.	16a\JJ	(
.	16g#/LL	(
.	16f#/	(
.	16e/	(
.	16d/JJ	(
.	16c#/LL	(
.	16d/	(
.	16e/	[
.	16d/JJ)	>
=27	=27	=27
(16c#\LL	2.r	)
16B\	.	)
16A\	.	)
16G#\JJ	.	)
16F#\LL	.	)
16E\	.	)
16D\	.	)
16C#\JJ	.	)
16BB/LL	.	)
16AA/	.	)
16GG#/	.	)
16FF#/JJ	.	)
=28	=28	=28
4EE/)	16r	]
.	(16e/LL	p
.	16f#/	.
.	16e/JJ	.
4r	16f#/LL	.
.	16a/	.
.	16g#/	.
.	16a/JJ	.
(4E\	16g#/LL	<
.	16b/	(
.	16a/	(
.	16b/JJ	(
=29	=29	=29
4F#\	16a\LL	(
.	16cc#\	(
.	16b\	(
.	16cc#\JJ	(
4G#\	16b\LL	(
.	16dd\	(
.	16cc#\	(
.	16dd\JJ)	[
4A\)	(8cc#\L	mf
.	16b\L	.
.	16a\JJ	.
=30	=30	=30
16r	4ee\	p
(16E\LL	.	.
16F#\	.	.
16E\JJ	.	.
16F#\LL	4dd\	<
16A\	.	(
16G#\	.	(
16A\JJ	.	(
16G#\LL	4b\	(
16B\	.	(
16A\	.	(
16B\JJ	.	(
=31	=31	=31
16A\LL	4cc#\	(
16c#\	.	(
16B\	.	(
16c#\JJ	.	(
16B\LL	4b\)	(
16d\	.	(
16c#\	.	(
16d\JJ)	.	[
(8c#\L	(8ee\L	mf
16B\L	16dd\L	.
16A\JJ	16cc#\JJ)	.
=32	=32	=32
*	*^	*
4e\)	4r	16r	.
.	.	(16b\LL	p
.	.	16ccn\	.
.	.	16dd#\JJ	.
4r	8ee/L)	16ee\LL	.
.	.	16e\	.
.	(8ddn/J	16fn\	.
.	.	16g#\JJ	.
16r	[4a/ (4cc/)	4r	mf
(16A\LL	.	.	.
16cn\	.	.	.
16d#\JJ	.	.	.
=33	=33	=33	=33
4e\)	16a/] 16ccn/LL)	4r	.
.	(16b/	.	p
.	16cc/	.	.
.	16dd#/JJ	.	.
4r	8ee/L	16ee\LL	.
.	.	16e\)	.
.	(8ddn/J	16fn\	.
.	.	16g#\JJ	.
16r	[4a/ [4ccn/)	4r	mf
(16A\LL	.	.	.
16cn\	.	.	.
16d#\JJ	.	.	.
*	*v	*v	*
=34	=34	=34
4.e\	16a\] 16ccn\LL]	.
.	(16b\	p
.	16cc\	.
.	16dd#\JJ	.
.	(16ee\LL)	.
.	16ee\	.
8dn\	16ffn\	.
.	16gg#\JJ	.
4cn\	16aa\LL	.
.	16a\	mf
.	16cc\	.
.	16ee\JJ	.
=35	=35	=35
4d\	16ffn\LL	.
.	16g#\	.
.	16b\	.
.	16dd#\JJ	>
4e\	16ee\LL	)
.	16ccn\	)
.	16ddn\	)
.	16b\JJ	)
4E\	16cc/LL	)
.	16a/	)
.	16b/	)
.	16g#/JJ	]
=36	=36	=36
*	*^	*
4AA/)	16a/LL	4r	p
.	16b/	.	.
.	16ccn/	.	.
.	16dd#/JJ	.	.
4r	8ee/L	16ee\LL)	.
.	.	16e\	.
.	(8ddn/J	16fn\	.
.	.	16g#\JJ	.
16r	[4a/ [4ccn/)	4r	mf
(16A\LL	.	.	.
16cn\	.	.	.
16d#\JJ	.	.	.
=37	=37	=37	=37
4e\)	16a/] 16ccn/LL]	4r	.
.	(16b/	.	p
.	16cc/	.	.
.	16dd#/JJ	.	.
4r	8ee/L	16ee\LL	.
.	.	16e\)	.
.	(8ddn/J	16fn\	.
.	.	16g#\JJ	.
16r	[4a/ [4ccn/)	4r	mf
(16A\LL	.	.	.
16cn\	.	.	.
16d#\JJ	.	.	.
*	*v	*v	*
=38	=38	=38
4.e\	16a\] (16ccn\LL]	.
.	16b\	p
.	16cc\	.
.	16dd#\JJ	.
.	(16ee\LL)	.
.	16ee\	.
8dn\	16ffn\	.
.	16gg#\JJ	.
4cn\	16aa\LL	.
.	16a\	f
.	16cc\	.
.	16ee\JJ	.
=39	=39	=39
4d\	16ffn\LL	.
.	16g#\	.
.	16b\	.
.	16dd#\JJ	>
4e\	16ee\LL	)
.	16ccn\	)
.	16ddn\	)
.	16b\JJ	)
4E\	16cc/LL	)
.	16a/	)
.	16b/	)
.	16g#/JJ	)
=40	=40	=40
4A\)	8a\L)	]
.	(16aa\L	f
.	16gg#\JJ	.
(4a\	16aa\LL	.
.	16ee\	.
.	16ff#\	.
.	16dd\JJ	.
4g#\)	16ee\LL	.
.	16cc#\	.
.	16dd\	.
.	16b\JJ	.
=41	=41	=41
8r	4.cc#\	.
(16a\LL	.	.
16g#\JJ	.	.
16a\LL	.	.
16e\	.	.
16f#\	8dd\L	.
16d\JJ	.	.
16e\LL	8ee\	.
16c#\	.	.
16d\	8ff#\J	.
16B\JJ	.	.
=42	=42	=42
4c#\)	8ee\L)	.
.	16aa\L	p
.	16gg#\JJ	.
(4a\	16aa\LL	.
.	16ee\	.
.	16ff#\	.
.	16dd\JJ	.
4g#\)	16ee\LL	.
.	16cc#\	.
.	16dd\	.
.	16b\JJ	.
=43	=43	=43
8r	4.cc#\	.
(16a\LL	.	.
16g#\JJ	.	.
16a\LL	.	.
16e\	.	.
16f#\	8dd\L	.
16d\JJ	.	.
16e\LL	8ee\	.
16c#\	.	.
16d\	8ff#\J	.
16B\JJ	.	.
=44	=44	=44
16c#\LL	8ee\L	<
16A\	.	(
16B\	8dd\	(
16G#\JJ	.	(
16A\LL	8cc#\	(
16E\	.	(
16F#\	8b\	(
16D\JJ	.	(
16E/LL	8a\	(
16C#/	.	(
16D/	8g#\J	(
16BB/JJ	.	(
=45	=45	=45
8C#/L	16a\LL	(
.	16b\	(
8D/J	16cc#\	(
.	16dd\JJ	(
4E\	16cc#\LL	(
.	16dd\	(
.	16ee\	(
.	16dd\JJ	(
4EE/	16cc#\LL	(
.	16b\	(
.	16a\	(
.	16g#\JJ	(
=46	=46	=46
4AA/)	8a\L	[
.	(16aa\L	f
.	16gg#\JJ	.
(4A\	16aa\LL	.
.	16ee\	.
.	16ff#\	.
.	16dd\JJ	.
4G#\	16ee\LL	.
.	16cc#\	.
.	16dd\	.
.	16b\JJ	.
=47	=47	=47
4A\	16cc#/LL	>
.	16a/	)
.	16b/	)
.	16g#/JJ	)
4D\	16a/LL	)
.	16e/	)
.	16f#/	)
.	16d/JJ	)
4E\	16c#/LL	)
.	16a/	)
.	16B/	)
.	16g#/JJ)	)
=48	=48	=48
.	(g#q/	]
4AA/) 4A/	4a/)	p
4r	4r	.
4r	4r	.
=49:|!|:	=49:|!|:	=49:|!|:
*>B	*>B	*>B
*^	*	*
2r	(2A\	16r	.
.	.	(16a\LL	p
.	.	16cc#\	.
.	.	16dd\JJ	.
.	.	16ee\LL	<
.	.	16e\	(
.	.	16g\	(
.	.	16a\JJ	[
16G/LL	(4G\)	4b-\)	>
16c#/	.	.	)
16d/	.	.	)
16e/JJ	.	.	)
=50	=50	=50	=50
2r	4d\ 4fn\)	16r	)
.	.	(16a\LL	)
.	.	16cc#\	]
.	.	16dd\JJ	<
.	(4A\	16ee\LL	(
.	.	16e\	(
.	.	16g\	(
.	.	16a\JJ	[
(16G/LL)	4G\	4b-\)	>
16c#/	.	.	)
16d/	.	.	)
16e/JJ	.	.	)
=51	=51	=51	=51
2A\	4d/ 4fn/	16r	]
.	.	(16a\LL	<
.	.	16cc#\	(
.	.	16dd\JJ	(
.	4e/ 4g/)	16ee\LL	(
.	.	16ffn\	(
.	.	16gg\	(
.	.	16ee\JJ)	[
4A\ 4d\ (4f\	4r	(8ff\L	mf
.	.	16ee\L	.
.	.	16dd\JJ	.
*v	*v	*	*
=52	=52	=52
4A\ 4e\	16aa\LL	.
.	16a\	.
.	16ee\	.
.	16ffn\JJ	>
4B-\ 4d\	16gg\LL	)
.	16g\	)
.	16dd\	)
.	16ee\JJ	)
4A\ 4cn\	16ff\LL	)
.	16fn\	)
.	16ccn\	)
.	16dd\JJ)	)
=53	=53	=53
4G\ 4B-\	16ee/LL	)
.	16e/	)
.	16b-/	)
.	16ccn/JJ	)
4Fn\ 4A\	16dd/LL	)
.	16d/	)
.	16a/	)
.	16b-/JJ	)
4E\ 4G\	16cc/LL	)
.	16cn/	)
.	16g/	)
.	16a/JJ	)
=54	=54	=54
4D\ 4Fn\	16b-\LL	)
.	16dd\	)
.	16ccn\	]
.	16b-\JJ	<
4E\ 4G\	16cc\LL	(
.	16dd\	(
.	16ee\	(
.	16ffn\JJ	[
4Cn\ 4E\	16gg\LL	>
.	16b-\	)
.	16a\	)
.	16g\JJ	)
=55	=55	=55
4Fn\ 4A\	16a/LL	)
.	16g/	)
.	16fn/	)
.	16e/JJ	)
4E\ 4G\	16f/LL	)
.	16e/	)
.	16f/	)
.	16g/JJ	)
4D\ 4F\)	16a/LL	)
.	16g/	)
.	16a/	)
.	16bn/JJ	]
=56	=56	=56
16r	4ccn\	p
(16Cn\LL	.	.
16D\	.	.
16C\JJ	.	.
16D\LL	(4cc\	<
16Fn\	.	(
16E\	.	(
16F\JJ	.	(
16E\LL	4cc'\	(
16G\	.	(
16F\	.	(
16G\JJ	.	(
=57	=57	=57
16Fn\LL	4ccn'\	(
16A\	.	(
16G\	.	(
16A\JJ	.	(
16G\LL	4cc'\	(
16B-\	.	(
16A\	.	(
16B-\JJ)	.	(
(8A\L	4cc\)	(
16G\L	.	(
16F\JJ	.	(
=58	=58	=58
4cn\)	16r	[
.	(16ccn/LL	mf
.	16b-/	.
.	16a/JJ	.
(4Cn/	16g/LL	.
.	16f#/	.
.	16g/	.
.	16a/JJ	.
4E-\)	16b-\LL	.
.	16cc\	.
.	16dd\	.
.	16ee-\JJ	.
=59	=59	=59
16r	4dd\)	p
(16D\LL	.	.
16En\	.	.
16D\JJ	.	.
16E\LL	(4dd'\	<
16G\	.	(
16F#\	.	(
16G\JJ	.	(
16F#\LL	4dd'\	(
16A\	.	(
16G\	.	(
16A\JJ	.	(
=60	=60	=60
16G\LL	4dd'\	(
16B-\	.	(
16A\	.	(
16B-\JJ	.	(
16A\LL	4dd'\	(
16cn\	.	(
16B-\	.	(
16c\JJ)	.	(
(8B-\L	4dd'\)	(
16A\L	.	(
16G\JJ	.	(
=61	=61	=61
4d\)	16r	[
.	(16dd\LL	f
.	16ccn\	.
.	16bn\JJ	.
(4D\	16a/LL	.
.	16g#/	.
.	16a/	.
.	16b/JJ	.
4Fn\)	16cc\LL	.
.	16dd\	.
.	16ee\	.
.	16ffn\JJ	.
=62	=62	=62
16r	4ee\)	p
(16E\LL	.	.
16F#\	.	.
16E\JJ	.	.
16F#\LL	(4ee'\	<
16A\	.	(
16G#\	.	(
16A\JJ	.	(
16G#\LL	4ee'\	(
16B\	.	(
16A\	.	(
16B\JJ	.	(
=63	=63	=63
16A\LL	4ee'\	(
16cn\	.	(
16B\	.	(
16c\JJ	.	(
16B\LL	4ee'\	(
16d\	.	(
16c\	.	(
16d\JJ)	.	(
(8c\L	4ee'\)	(
16B\L	.	(
16A\JJ	.	(
=64	=64	=64
4e\)	16r	[
.	(16b\LL	p
.	16ccn\	.
.	16dd#\JJ	<
*clefG2	*	*
16r	8ee\L	(
(16e/LL	.	(
16fn/	8ddn\J	(
16g#/JJ	.	(
[4a/)	16cc\LL)	(
.	(16ee\	(
.	16ffn\	(
.	16gg#\JJ	(
=65	=65	=65
*	*^	*
16a\LL]	4r	8aa\L	(
(16a\	.	.	(
16b-\	.	8ggn\J	(
16cc#\JJ	.	.	[
4dd\	(16ddd/LL	4ffn\)	f
.	16ccc#/	.	.
.	16bb-/	.	.
.	16aa/JJ	.	.
4g/	4r	16gg\LL	.
.	.	16ff\	.
.	.	16ee\	.
.	.	16dd\JJ	.
=66	=66	=66	=66
4a/)	4ee/	16cc#\LL	.
.	.	16b-\	.
.	.	16a\	.
.	.	16g\JJ	.
*clefF4	*	*	*
(4d\	16dd/LL	4fn\)	>
.	16ccn/	.	)
.	16b-/	.	)
.	16a/JJ	.	)
4G\	16g/LL	4r	)
.	16f/	.	)
.	16e/	.	)
.	16d/JJ	.	)
=67	=67	=67	=67
4A'\)	(4e/	16c#\LL	)
.	.	16B-\	)
.	.	16A\	)
.	.	16G\JJ	)
4D\	16d/LL	4Fn\	)
.	16cn/	.	)
.	16B-/	.	)
.	16A/JJ	.	]
4BBB-/ 4BB-/	4G/)	4r	p
=68	=68	=68	=68
4AAA/ 4AA/	4r	16r	.
.	.	(16ee\LL	p
.	.	16ffn\	.
.	.	16gg#\JJ	.
4r	8aa/L	16aa\LL)	.
.	.	16a\	.
.	(8ggn/J	16b-\	.
.	.	16cc#\JJ	.
*clefG2	*	*	*
16r	4r	[4dd\ (4ff\)	mf
(16d/LL	.	.	.
16fn/	.	.	.
16g#/JJ	.	.	.
=69	=69	=69	=69
4a/)	4r	16dd\] 16ffn\LL)	.
.	.	(16ee\	p
.	.	16ff\	.
.	.	16gg#\JJ	.
4r	8aa/L	16aa\LL)	.
.	.	16a\	.
.	8ggn/J	16b-\	.
.	.	16cc#\JJ	.
16r	4r	[4dd\ [4ffn\	mf
(16d/LL	.	.	.
16fn/	.	.	.
16g#/JJ	.	.	.
*	*v	*v	*
=70	=70	=70
4.a/	16dd\] 16ffn\LL]	.
.	(16ee\	.
.	16ff\	.
.	16gg#\JJ	.
.	(16aa\LL)	.
.	16aa\	.
8gn/	16bb-\	.
.	16ccc#\JJ	.
4fn/	16ddd\LL	.
.	16dd\	mf
.	16ff\	.
.	16aa\JJ	.
=71	=71	=71
4g/	16bb-\LL	.
.	16cc#\	.
.	16ee\	.
.	16gg#\JJ	.
4a/	16aa\LL	.
.	16ffn\	.
.	16ggn\	.
.	16ee\JJ	.
4A/	16ff\LL	.
.	16dd\	.
.	16ee\	.
.	16cc#\JJ	.
=72	=72	=72
*	*^	*
4d/)	4r	16dd\LL	p
.	.	16ee\	.
.	.	16ffn\	.
.	.	16gg#\JJ	.
4r	8aa/L	16aa\LL)	.
.	.	16a\	.
.	(8ggn/J	16b-\	.
.	.	16cc#\JJ	.
16r	4r	[4dd\ [4ffn\)	mf
(16d/LL	.	.	.
16fn/	.	.	.
16g#/JJ	.	.	.
=73	=73	=73	=73
4a/)	4r	16dd\] 16ffn\LL]	.
.	.	(16ee\	p
.	.	16ff\	.
.	.	16gg#\JJ	.
4r	8aa/L	16aa\LL)	.
.	.	16a\	.
.	(8ggn/J	16b-\	.
.	.	16cc#\JJ	.
16r	4r	[4dd\ [4ffn\)	mf
16d/LL	.	.	.
16fn/	.	.	.
16g#/JJ	.	.	.
*	*v	*v	*
=74	=74	=74
4.a/	16dd\] 16ffn\LL]	.
.	(16ee\	p
.	16ff\	.
.	16gg#\JJ	.
.	16aa\LL)	.
.	(16aa\	.
8gn/	16bb-\	.
.	16ccc#\JJ	.
4fn/	16ddd\LL	.
.	16dd\	mf
.	16ff\	.
.	16aa\JJ	.
=75	=75	=75
4g/	16bb-\LL	.
.	16cc#\	.
.	16ee\	.
.	16gg#\JJ	>
4a/	16aa\LL	)
.	16ffn\	)
.	16ggn\	)
.	16ee\JJ	)
4A/	16ff\LL	)
.	16dd\	)
.	16ee\	)
.	16cc#\JJ	]
=76	=76	=76
4d/	8dd\L)	p
.	(16ddd\L	f
.	16ccc#\JJ	.
(4dd\	16ddd\LL	.
.	16aa\	.
.	16bbn\	.
.	16gg\JJ	.
4cc#\)	16aa\LL	.
.	16ff#\	.
.	16gg\	.
.	16ee\JJ	.
=77	=77	=77
8r	4.ff#\	.
(16dd\LL	.	.
16cc#\JJ	.	.
16dd\LL	.	.
16a\	.	.
16b\	8gg\L	.
16g\JJ	.	.
16a/LL	8aa\	.
16f#/	.	.
16g/	8bb\J	.
16e/JJ	.	.
=78	=78	=78
4f#/)	8aa\L)	.
.	(16ddd\L	p
.	16ccc#\JJ	.
(4dd\	16ddd\LL	.
.	16aa\	.
.	16bb\	.
.	16gg\JJ	.
4cc#\)	16aa\LL	.
.	16ff#\	.
.	16gg\	.
.	16ee\JJ	.
=79	=79	=79
8r	4.ff#\	.
(16dd\LL	.	.
16cc#\JJ	.	.
16dd\LL	.	.
16a\	.	.
16b\	8gg\L	.
16g\JJ	.	.
16a/LL	8aa\	.
16f#/	.	.
16g/	8bb\J	.
16e/JJ	.	.
=80	=80	=80
16f#/LL	8aa\L	<
16d/	.	(
16e/	8gg\	(
16c#/JJ	.	(
*clefF4	*	*
16d\LL	8ff#\	(
16A\	.	(
16B\	8ee\	(
16G\JJ	.	(
16A\LL	8dd\	(
16F#\	.	(
16G\	8cc#\J	(
16E\JJ	.	(
=81	=81	=81
8F#\L	16dd\LL	(
.	16ee\	(
8G\J	16ff#\	(
.	16gg\JJ	(
4A\	16ff#\LL	(
.	16gg\	(
.	16aa\	(
.	16gg\JJ	(
4AA/	16ff#\LL	(
.	16ee\	(
.	16dd\	(
.	16cc#\JJ	[
=82	=82	=82
4D\)	8dd\L)	f
.	(16ddd\L	.
.	16ccc#\JJ	.
(4d\	16ddd\LL	.
.	16aa\	.
.	16bb\	.
.	16gg\JJ	.
4c#\	16aa\LL	.
.	16ff#\	.
.	16gg\	.
.	16ee\JJ	.
=83	=83	=83
4d\	16ff#\LL	.
.	16dd\	.
.	16ee\	.
.	16cc#\JJ	.
4G\	16dd\LL	.
.	16a\	.
.	16b\	.
.	16g\JJ	.
4A\)	16f#/LL	.
.	16dd/	.
.	16e/	.
.	16cc#/JJ	.
=84	=84	=84
4DD/	(8dd\L)	.
.	16dd\L	p
.	16cc#\JJ	.
(4D\	16dd\LL	.
.	16a\	.
.	16b\	.
.	16g\JJ	.
4C#/	16a/LL	.
.	16f#/	.
.	16g/	.
.	16e/JJ	.
=85	=85	=85
4D/	16f#/LL	.
.	16d/	.
.	16e/	.
.	16c#/JJ	.
*	*clefF4	*clefF4
4GG/	16d\LL	.
.	16A\	.
.	16B\	.
.	16G\JJ	.
4AA/	16F#\LL	.
.	16d\	.
.	16E\	.
.	16c#\JJ)	.
=86	=86	=86
.	(c#q/	.
4DD/) 4D/	4d\)	.
4r	4r	.
4r	4r	.
==:|!	==:|!	==:|!
*-	*-	*-
